packages/picasso-pictograms/src/Pictogram/svg/PeopleReferralInviteEmptyStateBlue64.svg

<svg fill="none" xmlns="http://www.w3.org/2000/svg" viewBox="0 0 64 64">
  <g clip-path="url(#a)">
    <path opacity=".15" d="M17.376 21.7959c5.5228 0 10-4.4772 10-10 0-5.52285-4.4772-10-10-10-5.5229 0-10.00002 4.47715-10.00002 10 0 5.5228 4.47712 10 10.00002 10ZM13 40.2H8.99995L17 33l6.02 5.416c5.164-4.48 3.624-15.04-5.12-15.4-.232-.008-.468-.016-.7-.016C7.81195 23 .199951 30.788.199951 40.396H13V40.2ZM46.8 37.504c-9.388 0-17 7.744-17 17.296h17.168c11.184 0 11.7081-16.824.536-17.284-.2319-.008-.4679-.016-.6999-.016l-.0041.004Z" fill="#183A9E"/>
    <path d="M29.8 54.6998c0-9.552 7.612-17.296 17-17.296s17 7.744 17 17.296" stroke="#204ECF" stroke-miterlimit="10"/>
    <path opacity=".15" d="M47.012 36.1681c5.5096 0 9.976-4.4736 9.976-9.992 0-5.5184-4.4664-9.992-9.976-9.992-5.5096 0-9.976 4.4736-9.976 9.992 0 5.5184 4.4664 9.992 9.976 9.992Z" fill="#183A9E"/>
    <path d="M47.012 36.1681c5.5096 0 9.976-4.4736 9.976-9.992 0-5.5184-4.4664-9.992-9.976-9.992-5.5096 0-9.976 4.4736-9.976 9.992 0 5.5184 4.4664 9.992 9.976 9.992ZM.199951 40.396C.199951 30.788 7.81195 23 17.2 23c9.388 0 17 7.788 17 17.396M17.376 21.7959c5.5228 0 10-4.4772 10-10 0-5.52285-4.4772-10-10-10-5.5229 0-10.00002 4.47715-10.00002 10 0 5.5228 4.47712 10 10.00002 10Z" stroke="#204ECF" stroke-miterlimit="10"/>
    <path d="M34.492 62.392c-7.808-1.492-13.448-8.284-13.448-16.188l-.04-6.004h4l-8-7.2-7.99997 7.2H13.004l.04 7.116c0 9.104 7.42 16.484 16.576 16.484h12.248l-7.376-1.408Z" stroke="#204ECF" stroke-miterlimit="10"/>
  </g>
  <defs>
    <clipPath id="a">
      <path fill="#fff" d="M0 0h64v64H0z"/>
    </clipPath>
  </defs>
</svg>

<svg width="64" height="64" viewBox="0 0 64 64" fill="none" xmlns="http://www.w3.org/2000/svg">
<g clip-path="url(#clip0_1329_508)">
<path opacity="0.15" d="M17.376 21.7959C22.8988 21.7959 27.376 17.3187 27.376 11.7959C27.376 6.27305 22.8988 1.7959 17.376 1.7959C11.8531 1.7959 7.37598 6.27305 7.37598 11.7959C7.37598 17.3187 11.8531 21.7959 17.376 21.7959Z" fill="#183A9E"/>
<path opacity="0.15" d="M13 40.2H8.99995L17 33L23.02 38.416C28.184 33.936 26.644 23.376 17.9 23.016C17.668 23.008 17.432 23 17.2 23C7.81195 23 0.199951 30.788 0.199951 40.396H13V40.2Z" fill="#183A9E"/>
<path opacity="0.15" d="M46.8 37.504C37.412 37.504 29.8 45.248 29.8 54.8H46.968C58.152 54.8 58.6761 37.976 47.504 37.516C47.2721 37.508 47.0361 37.5 46.8041 37.5L46.8 37.504Z" fill="#183A9E"/>
<path d="M29.8 54.6998C29.8 45.1478 37.412 37.4038 46.8 37.4038C56.188 37.4038 63.8 45.1478 63.8 54.6998" stroke="#204ECF" stroke-miterlimit="10"/>
<path opacity="0.15" d="M47.012 36.1681C52.5216 36.1681 56.988 31.6945 56.988 26.1761C56.988 20.6577 52.5216 16.1841 47.012 16.1841C41.5024 16.1841 37.036 20.6577 37.036 26.1761C37.036 31.6945 41.5024 36.1681 47.012 36.1681Z" fill="#183A9E"/>
<path d="M47.012 36.1681C52.5216 36.1681 56.988 31.6945 56.988 26.1761C56.988 20.6577 52.5216 16.1841 47.012 16.1841C41.5024 16.1841 37.036 20.6577 37.036 26.1761C37.036 31.6945 41.5024 36.1681 47.012 36.1681Z" stroke="#204ECF" stroke-miterlimit="10"/>
<path d="M0.199951 40.396C0.199951 30.788 7.81195 23 17.2 23C26.588 23 34.2 30.788 34.2 40.396" stroke="#204ECF" stroke-miterlimit="10"/>
<path d="M17.376 21.7959C22.8988 21.7959 27.376 17.3187 27.376 11.7959C27.376 6.27305 22.8988 1.7959 17.376 1.7959C11.8531 1.7959 7.37598 6.27305 7.37598 11.7959C7.37598 17.3187 11.8531 21.7959 17.376 21.7959Z" stroke="#204ECF" stroke-miterlimit="10"/>
<path d="M34.492 62.392C26.684 60.9 21.044 54.108 21.044 46.204L21.004 40.2H25.004L17.004 33L9.00403 40.2H13.004L13.044 47.316C13.044 56.42 20.464 63.8 29.62 63.8H41.868L34.492 62.392Z" stroke="#204ECF" stroke-miterlimit="10"/>
</g>
<defs>
<clipPath id="clip0_1329_508">
<rect width="64" height="64" fill="white"/>
</clipPath>
</defs>
</svg>
